X:1
T:Jock Tamson's -- Hornpipe
R:hornpipe
B:Cole's 1000 Fiddle Tunes
M:2/4
L:1/16
K:D
vAd|fgfe d"4"edB|A2F2 F3E|DFAd gfed|cdef e2vAd|
fgfe d"4"edB|A2F2 F3A|FAdf egc"4"e|d2d2d2:|
|:uef|gfeg fedf|edcB A2vef|gfeg fedf|e2a2a2 vef|
gfeg fedf|edc"4"e dcBA|Bdc"4"e dfeg|f2d2d2:|
